X:1
T:Airegin
M:4/4
L:1/8
C:Sonny Rollins
Q:1/4=240
%%staves (chords melody)
K:Ab
%%text (up)
%%vskip 20
P:A
V:chords
"Fm6"x4 x4 | "C7"x4 x4 | "Fm6"x4 x4 | "F7"x4 x4 |
"Bbm6"x4 x4 | "F7"x4 x4 | "Bbm6"x4 x4 | x4 x4 ||
V:melody
z2 (3FGF CFAc | _G2e4d2 | z8 | zCF2 G2=A2 |
z2 (3BcB FBdf | _c2a4_g2 | z8 | zFB2 c2d2 ||
P:B
V:chords
"Dbmaj7"x4 x4 | "Dm7"x4 "G7"x4 | "Cmaj7"x4 x4 | "C#m7"x4 "F#7"x4 |
"Bmaj7"x4 x4 | "Cm7"x4 "F7"x4 | "Bbmaj7"x4 x4 | x4 x4 |
"Bbm7"x4 x4 | "Eb7"x4 x4 | "Abmaj7"x4 x4 | "Gm7b5"x4 "C7"x4 ||
V:melody
f8 | g2g4f2 | =e8 | ^f2f4=e2 |
^d8 | f2f4_e2 | =d8- | d8|
_d8 | e2e4d2 | c8- | c8 ||
P:A
V:chords
"Fm6"x4 x4 | "C7"x4 x4 | "Fm6"x4 x4 | "F7"x4 x4 |
"Bbm6"x4 x4 | "F7"x4 x4 | "Bbm6"x4 x4 | x4 x4 ||
V:melody
z2 (3FGF CFAc | _G2e4d2 | z8 | zCF2 G2=A2 |
z2 (3BcB FBdf | _c2a4_g2 | z8 | zFB2 c2d2 ||
P:B'
V:chords
"Dbmaj7"x4 x4 | "Dm7b5"x4 "G7"x4 | "Cm7b5"x4 x4 | "F7"x4 x4 |
"Bbm7"x4 x4 | "Eb7"x4 x4 | "Ab6"x4 x4 | "Gm7b5"x4 "C7"x4 |]
V:melody
z2f6 | g2g4fe | z3c z_g ze | f2f2B2=B2 |
c2zA zFB2 | zB zF _F3=D | E2A2z4 | z8 |]
